X: 31867
T: Pawn Of Madness, The
R: reel
M: 4/4
K: Dmajor
~F3F GFED|A,B,DE FDDB,|A,B,DE FDGF|E2ED EFGB|
~A3F GFED|A,B,DE FDDB,|A,B,DE FDGF|~E3F D3z||
~F3F GFED|FDAD B2AB|~d3f edBA|dAeA fedB|
~F3F GFED|FDAD B2AB|~d3f edBA|F2EG FDD2|
~F3F GFED|FDAD B2AB|~d3f edBA|dAeA fedB|
~F3F GFED|A,B,DE FDDB,|A,B,DE FDGF|~E3F D3z||

